!!!OTL: Old Arboe
!!!id: I0524
**kern
*clefG2
*k[b-e-]
*B-:
{8f
8d
4B-
8d
8e-
=1
4.f
8g
4a
4b-
4d
4B-
=2
4.e-
8c
4A-}
=3
{8B-
8c
4.d
8e-
=4
4.f
8e
8g
8f
8e-
8c
4.B-
8B-
=5
2.B-}
=6
{8f
8d
4B-
8d
8e-
=7
4.f
8g
4a
4b-
4d
4B-
=8
4.e-
8c
4A-}
=9
{8B-
8c
4.d
8e-
=10
4.f
8e
8g
8f
8e-
8c
4.B-
8B-
=11
2.B-}
=12
{4f
4b-
4cc
=13
2dd
8ee-
8dd
8cc
8a
4f
8g
8a
=14
4.b-
8a
4.f}
=15
{8f
4b-
4cc
=16
2dd
8ee-
8dd
8cc
8a
4f
8g
8a
=17
2.b-}
=18
{8a
8b-
4cc
4f
=19
4b-
2a-
8f
8e-
4d
4B-
=20
4.e-
8c
4A-}
=21
{8B-
8c
4.d
8e-
=22
4.f
8e
8g
8f
8e-
8c
4.B-
8B-
=23
2.B-}
==
*-
!!!minrhy: 8
!!!meters: 6/4 ]  ZZ[8
!!!cut: Old Arboe
!!!reg: Irland
!!!trd: O BOYLE, Sean: 25 Irish Folksongs, Dublin 1976
!!!rhy1: XXX_XX  X_.XX_X_X_X_  X_.XX_
!!!rhy2: XXX_.X  X_.XXXXXX_.X  X__.
!!!key: I0524  08 Bb 6/4 ]  ZZ[8
!!!mod: NEUNTONSKALA DUR ?]  AMBITUS[12
!!!kad: --7b-1--7b-1-51--7b-1
!!!akz: -5-51-4_-1-5-4-1_-5-51-4_-1-5-4-1_-5321-5_321_-71-5-4_-1-5-4-1_
!!!fot: 'a__b__a__b__c__d__e__b__
!!!for: 'a__b__a__b__c__cw_d__b__
!!!fok: '^d_^__^d_^__M__~a_\__^__
!! PHRAS[AUFTAKTIG]
!!!fkt: historisch, erz&auml;hlendes Lied
!! IRISCHE VKL.
!! PR[22] 2K[6] 2G[12] 3K[2] 3G[6] 4A[0] 4Ü[0] 5A[0] 6K[0] 6G[0]
!! 7K[0] 7G[0] 8A[4] MEHR[0] SI[30] ABS[50] SR[18] SP[12]
!! ST[21] 2k[8] 2g[32] 3k[2] 3g[0] 4d[6] 4ü[0] 5d[0] 6k[0] 6g[0]
!! 7k[0] 7g[0] 8d[0] mehr[0] si[48] dm[-18] sr[40] sp[8]
!! 1F[29] 2F[41] 3F[12] 4F[0] LF[0] 2P[6] 3P[12] 4P[0] TRI[0] DF[5] AB[51]
!! TF[0] U3K[0] U3[0] U4[0] U4Ü[0] U5[0] U6K[0] U6[0] U7K[0] U7[0]
!! N1[12] N2K[0] N2[8] N3K[0] N3[8] N4[0] N4Ü[0] N5[10] N6K[0] N6[16]
!!!n7k: 0] N7[18] O1[18] O2K[0] O2[10] O3K[0] O3[2] HÖ[0
!!!RNB: symbol: &auml;      = a umlaut  (UTF-8: Å„)
